src/components/Sidebar/icons/user.svg

<svg width="16" height="16" viewBox="0 0 16 16" fill="none" xmlns="http://www.w3.org/2000/svg">
<path d="M16 7.99201C16 3.58042 12.416 0 8 0C3.584 0 0 3.58042 0 7.99201C0 10.4216 1.104 12.6114 2.832 14.0819C2.848 14.0979 2.864 14.0979 2.864 14.1139C3.008 14.2258 3.152 14.3377 3.312 14.4496C3.392 14.4975 3.456 14.5614 3.536 14.6254C4.816 15.4885 6.352 16 8.016 16C9.68 16 11.216 15.4885 12.496 14.6254C12.576 14.5774 12.64 14.5135 12.72 14.4655C12.864 14.3536 13.024 14.2418 13.168 14.1299C13.184 14.1139 13.2 14.1139 13.2 14.0979C14.896 12.6114 16 10.4216 16 7.99201ZM8 14.993C6.496 14.993 5.12 14.5135 3.984 13.7143C4 13.5864 4.032 13.4585 4.064 13.3307C4.16 12.979 4.304 12.6434 4.48 12.3397C4.656 12.036 4.864 11.7642 5.12 11.5245C5.36 11.2847 5.648 11.0609 5.936 10.8851C6.24 10.7093 6.56 10.5814 6.912 10.4855C7.264 10.3896 7.632 10.3417 8 10.3417C8.592 10.3417 9.136 10.4535 9.632 10.6613C10.128 10.8691 10.56 11.1568 10.928 11.5085C11.296 11.8761 11.584 12.3077 11.792 12.8032C11.904 13.0909 11.984 13.3946 12.032 13.7143C10.88 14.5135 9.504 14.993 8 14.993ZM5.552 7.59241C5.408 7.27273 5.344 6.92108 5.344 6.56943C5.344 6.21778 5.408 5.86613 5.552 5.54645C5.696 5.22677 5.888 4.93906 6.128 4.6993C6.368 4.45954 6.656 4.26773 6.976 4.12388C7.296 3.98002 7.648 3.91608 8 3.91608C8.368 3.91608 8.704 3.98002 9.024 4.12388C9.344 4.26773 9.632 4.45954 9.872 4.6993C10.112 4.93906 10.304 5.22677 10.448 5.54645C10.592 5.86613 10.656 6.21778 10.656 6.56943C10.656 6.93706 10.592 7.27273 10.448 7.59241C10.304 7.91209 10.112 8.1998 9.872 8.43956C9.632 8.67932 9.344 8.87113 9.024 9.01499C8.384 9.28671 7.6 9.28671 6.96 9.01499C6.64 8.87113 6.352 8.67932 6.112 8.43956C5.872 8.1998 5.68 7.91209 5.552 7.59241ZM12.976 12.8991C12.976 12.8671 12.96 12.8511 12.96 12.8192C12.8 12.3237 12.576 11.8442 12.272 11.4126C11.968 10.981 11.616 10.5974 11.184 10.2777C10.864 10.038 10.512 9.83017 10.144 9.67033C10.32 9.55844 10.48 9.41459 10.608 9.28671C10.848 9.04695 11.056 8.79121 11.232 8.5035C11.408 8.21578 11.536 7.91209 11.632 7.57642C11.728 7.24076 11.76 6.90509 11.76 6.56943C11.76 6.04196 11.664 5.54645 11.472 5.0989C11.28 4.65135 11.008 4.25175 10.656 3.9001C10.32 3.56444 9.904 3.29271 9.456 3.1009C9.008 2.90909 8.512 2.81319 7.984 2.81319C7.456 2.81319 6.96 2.90909 6.512 3.1009C6.064 3.29271 5.648 3.56444 5.312 3.91608C4.976 4.25175 4.704 4.66733 4.512 5.11489C4.32 5.56244 4.224 6.05794 4.224 6.58541C4.224 6.93706 4.272 7.27273 4.368 7.59241C4.464 7.92807 4.592 8.23177 4.768 8.51948C4.928 8.80719 5.152 9.06294 5.392 9.3027C5.536 9.44655 5.696 9.57443 5.872 9.68631C5.488 9.86214 5.136 10.0699 4.832 10.3097C4.416 10.6294 4.048 11.013 3.744 11.4286C3.44 11.8601 3.216 12.3237 3.056 12.8352C3.04 12.8671 3.04 12.8991 3.04 12.9151C1.776 11.6364 0.992 9.91009 0.992 7.99201C0.992 4.13986 4.144 0.991009 8 0.991009C11.856 0.991009 15.008 4.13986 15.008 7.99201C15.008 9.91009 14.224 11.6364 12.976 12.8991Z" fill="#C5C5C5"/>
</svg>

<svg width="16" height="16" fill="none" xmlns="http://www.w3.org/2000/svg"><path d="M16 7.992C16 3.58 12.416 0 8 0S0 3.58 0 7.992c0 2.43 1.104 4.62 2.832 6.09.016.016.032.016.032.032.144.112.288.224.448.336.08.048.144.111.224.175A7.98 7.98 0 0 0 8.016 16a7.98 7.98 0 0 0 4.48-1.375c.08-.048.144-.111.224-.16.144-.111.304-.223.448-.335.016-.016.032-.016.032-.032 1.696-1.487 2.8-3.676 2.8-6.106Zm-8 7.001c-1.504 0-2.88-.48-4.016-1.279.016-.128.048-.255.08-.383.096-.352.24-.688.416-.991.176-.304.384-.576.64-.816.24-.24.528-.463.816-.639.304-.176.624-.304.976-.4A4.15 4.15 0 0 1 8 10.342a4.185 4.185 0 0 1 2.928 1.166c.368.368.656.8.864 1.295.112.288.192.592.24.911A7.03 7.03 0 0 1 8 14.993Zm-2.448-7.4a2.49 2.49 0 0 1-.208-1.024c0-.351.064-.703.208-1.023.144-.32.336-.607.576-.847.24-.24.528-.431.848-.575.32-.144.672-.208 1.024-.208.368 0 .704.064 1.024.208.32.144.608.336.848.575.24.24.432.528.576.847.144.32.208.672.208 1.023 0 .368-.064.704-.208 1.023-.144.32-.336.608-.576.848a2.84 2.84 0 0 1-.848.575 2.715 2.715 0 0 1-2.064 0 2.84 2.84 0 0 1-.848-.575 2.526 2.526 0 0 1-.56-.848Zm7.424 5.306c0-.032-.016-.048-.016-.08a5.22 5.22 0 0 0-.688-1.406 4.883 4.883 0 0 0-1.088-1.135 5.207 5.207 0 0 0-1.04-.608 2.82 2.82 0 0 0 .464-.383c.24-.24.448-.496.624-.784a3.624 3.624 0 0 0 .528-1.934 3.71 3.71 0 0 0-.288-1.47 3.799 3.799 0 0 0-.816-1.199 3.845 3.845 0 0 0-1.2-.8 3.72 3.72 0 0 0-1.472-.287 3.72 3.72 0 0 0-1.472.288 3.631 3.631 0 0 0-1.2.815 3.84 3.84 0 0 0-.8 1.199 3.71 3.71 0 0 0-.288 1.47c0 .352.048.688.144 1.007.096.336.224.64.4.927.16.288.384.544.624.784.144.144.304.271.48.383a5.12 5.12 0 0 0-1.04.624c-.416.32-.784.703-1.088 1.119a4.999 4.999 0 0 0-.688 1.406c-.016.032-.016.064-.016.08C1.776 11.636.992 9.91.992 7.992.992 4.14 4.144.991 8 .991s7.008 3.149 7.008 7.001a6.96 6.96 0 0 1-2.032 4.907Z" fill="#C5C5C5"/></svg>
